src/assets/img/providers-white/netent.svg

<svg width="86" height="30" viewBox="0 0 86 30" fill="none" xmlns="http://www.w3.org/2000/svg">
<path d="M44.9692 0H44.105V30H44.9692V24.221H55.9058V20.7224H47.4908V16.6997H54.6875V13.1728H47.4908V9.27762H55.9058V5.75071H44.9692V0ZM10.9267 17.0822L7.82417 12.0538L3.84333 5.82153L3.80083 5.76487H0.5V24.221H4.16917V12.8754L6.90333 17.2946L11.295 24.221H14.6242V5.76487H10.9408V17.0822H10.9267ZM16.6783 24.221H28.7767V20.7224H20.3617V16.6997H27.5583V13.1728H20.3617V9.27762H28.7767V5.75071H16.6783V24.221ZM30.2642 9.32011H34.5V24.2351H38.1833V9.32011H42.3908V5.76487H30.2642V9.32011ZM68.1883 17.1105L65.0858 12.0822L61.105 5.84986L61.0625 5.77904H57.7617V24.2351H61.4167V12.8895L64.1508 17.3088L68.5425 24.2351H71.8717V5.7932H68.1883V17.1105ZM73.3733 5.7932V9.34844H77.6092V24.2635H81.2925V9.34844H85.5V5.7932H73.3733Z" fill="white"/>
</svg>

<svg width="86" height="30" fill="none" xmlns="http://www.w3.org/2000/svg"><path d="M44.97 0h-.865v30h.864v-5.779h10.937v-3.499H47.49V16.7h7.197v-3.527H47.49V9.278h8.415V5.75H44.969V0ZM10.926 17.082l-3.103-5.028-3.98-6.232-.043-.057H.5V24.22h3.67V12.875l2.733 4.42 4.392 6.926h3.33V5.765H10.94v11.317h-.014Zm5.751 7.139h12.099v-3.499h-8.415V16.7h7.196v-3.527h-7.196V9.278h8.415V5.75H16.678v18.47Zm13.586-14.9H34.5v14.914h3.683V9.32h4.208V5.765H30.264V9.32Zm37.924 7.79-3.102-5.029-3.981-6.232-.042-.071h-3.301v18.456h3.655V12.89l2.734 4.419 4.392 6.926h3.329V5.793h-3.684V17.11Zm5.185-11.318v3.555h4.236v14.915h3.684V9.349H85.5V5.793H73.373Z" fill="#fff"/></svg>
